X:1
T:Title
%%score { 1 | 2 }
L:1/8
M:2/4
K:F
V:1 treble nm="Grand Piano"
V:2 bass 
V:1
 z2[Q:1/4=100] FG | AA BA | A<G EF | GG AG | G<F FG | AA BA | A<G Gc | c=B AB | c2 c>^c | dd BB | %10
 d<c AG | FF GA | G2 AB | cA GF | B<B AG | FA A>G |[M:3/8] F3 |[M:3/4] AG F2 F2 | %18
 A[CFc] [EG]2 [EG]2 | [FA][Fc] [Fd]2 [Fc]2 |[M:2/4] [FA][EG] F2- | F2 z2 |] %22
V:2
 z4 | z4 | z4 | z4 | z4 | z4 | z4 | z4 | z4 | z4 | z4 | z4 | z4 | z4 | z4 | z4 |[M:3/8] z3 | %17
[M:3/4] [F,CF][F,A,C] [F,A,C]2 [F,A,C]2 | [F,CF]A,, [C,C]2 [C,C]2 | [F,C][F,A,] [B,,B,]2 [F,A,]2 | %20
[M:2/4] [C,C][C,B,] [F,A,]2- | [F,A,]2 z2 |] %22

